X: 174
T: a Trip to Holland
B: 204 Favourite Country Dances
N: Published by Straight & Skillern, London ca.1775
F: http://imslp.org/wiki/204_Favourite_Country_Dances_(Various) p.87 #174
Z: 2014 John Chambers <jc:trillian.mit.edu>
M: 2/4
L: 1/8
K: A
% - - - - - - - - - - - - - - - - - - - - - - - - -
|:\
A2 B2 | c>ded | cBAG | A2 A,2 |\
A2 B2 | c>ded | cBAG | A2 z2 :|
|:\
B2 d2 | c/d/e/f/ ea | eadc | {c}B2 E2 |\
B2 d2 | c/d/e/f/ ea | ea TB2 | A2 z2 :|
% - - - - - - - - - - - - - - - - - - - - - - - - -
%%begintext align
%% First Cu. cast off one Cu. & hands round 4 with
%% the 3d Cu .| Cast up & hands round with the 2d
%% Cu .|. Lead thro' the 3d Cu. & turn your Part: :|.
%% Lead up to the top and cast off :|:
%%endtext

%%sep 1 1 500
%%sep 1 1 500
